src/icons/svg/WebAnalyticsApp.svg

<svg width="24" height="24" viewBox="0 0 24 24" fill="none" xmlns="http://www.w3.org/2000/svg">
<path d="M11.461 19.422C11.546 19.422 11.631 19.42 11.715 19.418L12.254 21.308C11.993 21.331 11.728 21.342 11.461 21.342C6.46297 21.342 2.40997 17.29 2.40997 12.291C2.40997 7.29201 6.46197 3.24001 11.461 3.24001C16.459 3.24001 20.511 7.29201 20.511 12.291C20.511 12.572 20.498 12.849 20.473 13.123L18.585 12.585C18.589 12.487 18.591 12.389 18.591 12.291C18.591 8.35301 15.399 5.16001 11.461 5.16001C7.52297 5.16001 4.32997 8.35201 4.32997 12.291C4.32997 16.229 7.52197 19.422 11.461 19.422V19.422ZM11.461 8.78101C13.139 8.78101 14.542 9.95801 14.889 11.532L16.888 12.102C16.788 9.19101 14.397 6.86101 11.461 6.86101C8.46197 6.86101 6.03097 9.29201 6.03097 12.291C6.03097 15.213 8.33797 17.595 11.23 17.716L10.658 15.709C9.10597 15.346 7.95097 13.953 7.95097 12.291C7.95097 10.352 9.52297 8.78101 11.461 8.78101V8.78101ZM12 12.505C11.783 12.443 11.582 12.644 11.644 12.861L13.936 20.906C14.137 21.61 15.02 21.84 15.538 21.322L20.461 16.399C20.979 15.881 20.75 14.998 20.045 14.797L12 12.505V12.505ZM15.335 18.81L14.294 15.155L17.949 16.196L15.336 18.809L15.335 18.81Z" fill="#1C2125"/>
</svg>

<!-- Generated by IcoMoon.io -->
<svg version="1.1" xmlns="http://www.w3.org/2000/svg" width="24" height="24" viewBox="0 0 24 24">
<title>web-analytics-app</title>
<path fill="#444" d="M11.461 19.422c0.085 0 0.17-0.002 0.254-0.004l0.539 1.89c-0.261 0.023-0.526 0.034-0.793 0.034-4.998 0-9.051-4.052-9.051-9.051s4.052-9.051 9.051-9.051c4.998 0 9.050 4.052 9.050 9.051 0 0.281-0.013 0.558-0.038 0.832l-1.888-0.538c0.004-0.098 0.006-0.196 0.006-0.294 0-3.938-3.192-7.131-7.13-7.131s-7.131 3.192-7.131 7.131c0 3.938 3.192 7.131 7.131 7.131zM11.461 8.781c1.678 0 3.081 1.177 3.428 2.751l1.999 0.57c-0.1-2.911-2.491-5.241-5.427-5.241-2.999 0-5.43 2.431-5.43 5.43 0 2.922 2.307 5.304 5.199 5.425l-0.572-2.007c-1.552-0.363-2.707-1.756-2.707-3.418 0-1.939 1.572-3.51 3.51-3.51zM12 12.505c-0.217-0.062-0.418 0.139-0.356 0.356l2.292 8.045c0.201 0.704 1.084 0.934 1.602 0.416l4.923-4.923c0.518-0.518 0.289-1.401-0.416-1.602l-8.045-2.292zM15.335 18.81l-1.041-3.655 3.655 1.041-2.613 2.613z"></path>
</svg>
